X:1
T:Elinas polska
R:Polska
C:Kalle Almlöf
O:Dalarna
M:3/4
L:1/8
K:D
|:A2 a2 f3/2e/ |(3dcB A4 |(3ABc d2 B3/2d/ |c2 A4 |A2 a2 f3/2e/ |(3dcB A4 |(3ABc d2 e3/2d/ |c2 d4 ::
f2 A3/2f/ A3/2f/ |(3e2A2e2 Ae |d2 F3/2d/ F3/2d/ |c2 A4 |g2 B3/2g/ B3/2g/ |(3f2A2f2 Af |e3/2 A2 c/ e3/2f/ |d2 d4 :|

